X: 10792
T: MRS. CHARLES STEWART'S REEL
C: Marshall
R: reel
B: K\"ohler's Violin Repository, v.1, 1885 p.79 #2
F: http://www.archive.org/details/klersviolinrepos01edin
Z: 2012 John Chambers <jc:trillian.mit.edu>
M: C|
L: 1/8
K: F
u(A/B/) | cFdF cFAF | EGGA B2(Bd) | cFdF cFAF | ECDE F3 :|
ue |\
fcAf cfAf | cfAf g2(ga) | fcAf cfcA | (BG)EG F2Fe |
fcAf cfAf | defa g2(gf) | (a/g/f) (g/f/e) fcag | fdcA "_Fine."F3 |]

%%sep 2 1 500

